X: 140
T: No_74_The_Owl_Feather.krn
N: Derived from No_74_The_Owl_Feather.krn
%%abc-version 2.0
%%abcx-abcm2ps-target-version 5.9.1 (29 Sep 2008)
%%abc-creator hum2abc beta
%%abcx-conversion-date 2019/03/15 08:37:56
%%humdrum-veritas 2205064294
%%humdrum-veritas-data 743158508
%%linebreak <none>
%%barnumbers 0
L: 1/8
M: 2/4
K: Bb clef=bass
F,D/D/ [I:setbarnb 1]| 
(D3/B,/) B,3/F,/ ||  
[M:3/4]C/CC/C2(3CCC ||  
[M:2/4](B,3/F,/) F,3/D,/ ||  
[M:3/4]F,/G,/F,3//G,// G,/F,3/ (3F,F,D, ||  
[M:2/4]F,3/F,/ F,3/D,/ | 
F,3/F,/ F,3/F,/ | 
F, z B,C/C/ | 
C3/B,/ B,3/F,/ | 
B,3/B,/ B,3/G,/ | 
F,2D,/D,3/ ||  
[M:3/4]F,G,/G,/ G,/F,3/ F, z ||  
[M:2/4]F,3/F,/ F,3/D,/ | 
F,3/F,/ F,3/F,/ ||  
F,4 :|]  



% FRACTION = 0.499817BUT SHOULD BE 0
